X: 8661
T: Crosses Of Annagh, The
R: reel
M: 4/4
K: Adorian
EAAG A2Bd|eggd edBA|~G3B ABGE|DEGB AGED|
EAAG A2Bd|eggd edBA|GABd gedB|1 GABG A3G:|2 GABG A2Bd||
ea~a2 bage|a2ba gedB|d^cde g2ga|bgaf gedg|
ea~a2 bage|a2ba gedB|GABd gedB|1 GABG A2Bd:|2 GABG A3G||

